X:1
T:La terra, che dal fondo
T:La terra, che dal fondo
T:Ruggiero Giovanelli
C:Ruggiero Giovanelli
%%score [ 1 2 3 4 ]
L:1/8
Q:1/4=120
M:2/2
K:F
V:1 treble nm="Soprano" snm="S"
V:2 treble nm="Alto" snm="A"
V:3 treble-8 nm="Tenor" snm="T"
V:4 bass nm="Bass" snm="B"
V:1
 z8 | d8- | d8 | D8 | D8 | B,2 C2 D2 E2 | F2 G2 A3 A | D4 d4- | d4 D4 | D4 D2 E2 | F2 G2 A2 G2 | %11
w: |La||ter-|ra,|che dal fon- do|par che pu- lu-|le La|* ter-|ra, che dal|fon- do par che|
 ^F2 G2 A3 A | =B4 B4- | B4 =B4 | c6 c2 | c8 | z4 c4 | d4 d4 | G4 G4 | A6 A2 | G8- | G8 | z8 | %23
w: pu- * * lu-|le A-|* tri~a-|co- ni-|ti|e|piant' aspr'|e mor-|ti- fe-|re,|||
 z4 G4 | A4 A4 | B4 =B4- | B4 c4- | c4 =B4 | c4 c4 | c4 B4 | A8- | A8 | z8 | z4 G4 | G4 G4 | G8 | %36
w: e|piant' aspr'|e mor-|* ti-|* fe-|re, Ond'|og- gi~ad-|vien|||che|cia- scun|pian-|
 F8 | z4 F4 | F2 E2 F2 G2 | A2 G2 ^F3 F | G4 z2 d2 | d2 d2 d2 d2 | _e3 e e2 d2 | c3 c c4 | %44
w: ga|ed|u- * * *|* * * lu-|le E-|ra~all' or pie- na|d'er- be sa- lu-|ti- fe- re,|
 z2 c4 B2 | B6 B2 | B4 B4- | B2 A2 G2 F2 | G6 G2 | G4 z2 G2 | A4 A2 A2 | BABc dcBB | A2 A2 A2 A2 | %53
w: E di|bal- sa-|mo~e 'ncen-|* so la- gri-|me- vo-|le, Di|mir- rhe Di|mir- rhe pre- zi- os' e o- do-|ri- fe- re Di|
 d4 d2 B2 | AGAB cBAG | F3 G A2 A2 | AGFG ABcA | =B2 c4 B2 | c4 G4 | G4 G4 | A4 A4 | A3 G A2 G2 | %62
w: mir- rhe Di|mir- rhe pre- zi- os' e o- do-|ri- fe- re Di|mir- rhe pre- zi- os' e o- do-|ri- * fe-|re Cia-|scun man-|gia- va~a|l'om- bra di- let-|
 ^F3 F F4 | z4 z2 A2 | G4 F2 A2 | A3 A G2 F2 | G3 G G2 G2 | G3 G ^F2 G2 | ^F6 F2 | G8 | z8 | z8 | %72
w: te- vo- le|Or|lat- te e~or|gi- ne- bri e|mo- ro- le, e~or|gi- ne- bri e|mo- ro-|le,|||
 d8- | d8 | c2 c2 B4 | A4 z2 A2 | B3 G A3 A | B3 G A2 A2 | B3 G A3 A | B3 G A4 | z4 z2 F2 | %81
w: O||dol- ce tem-|po o|vi- ta sol- laz-|ze- vo- le. o|vi- ta sol- laz-|ze- vo- le.|o|
 G3 _E F3 D | ^F3 F G2 G2 | G3 G G3 G | ^F6 F2 | G8 |] %86
w: vi- ta sol- laz-|ze- vo- le. o|vi- ta sol- laz-|ze- vo-|le.|
V:2
 z8 | A,8 | B,8 | B,8 | z8 | D8 | A,4 A,4 | B,2 C2 D2 E2 | F2 G2 A3 A | G4 z4 | D2 E2 F2 G2 | %11
w: |La|ter-|ra,||La|ter- ra,|che dal fon- do|par che pu- lu-|le|che dal fon- do|
 A2 G2 ^F3 F | G4 G4- | G4 D4 | E6 E2 | E4 E4 | F2 F2 F2 E2 | D3 D D4 | z8 | z8 | D8 | _E4 =E4 | %22
w: par che pu- lu-|le A-|* tri~a-|co- ni-|ti e|piant' aspr' e mor-|ti- fe- re,|||e|piant' aspr'|
 F4 ^F4 | G6 G2 | D8 | z4 G4 | G4 G4 | G6 G2 | G4 G4 | A4 G4 | E8 | F8- | F4 F4 | D8 | _E8- | E8 | %36
w: e mor-|ti- fe-|re,|aspr'|e mor-|ti- fe-|re, Ond'|og- gi~ad-|vien|che|* cia-|scun|pian-||
 D4 D4- | D2 C2 D2 CB, | A,2 C2 A,2 C2 | A,2 B,C D3 D | D4 z2 G2 | G2 G2 G2 G2 | G3 G _E2 F2 | %43
w: ga~ed u-|||* * * * lu-|le E-|ra~all' or pie- na|d'er- be sa- lu-|
 F3 F F4 | z2 A4 G2 | G6 G2 | G4 G4- | G2 D2 D2 C2 | =B,2 C2 D3 D | E4 z2 E2 | F4 F2 F2 | %51
w: ti- fe- re,|E di|bal- sa-|mo~e 'ncen-|* so la- gri-|me- * * vo-|le, Di|mir- rhe Di|
 DCDE FEDE | F6 F2 | F2 D2 F4 | F2 F2 AGFG | A4 F2 F2 | EDCD EDEF | G6 G2 | G4 z2 E2 | E4 E4 | %60
w: mir- rhe pre- zi- os' e o- do-|ri- fe-|re Di mir-|rhe Di mir- rhe pre- zi-|le. o- Di|mir- rhe pre- zi- os' e o- do-|ri- fe-|re Cia-|scun man-|
 F4 F4 | F3 G F2 E2 | D3 D D4 | z4 z2 F2 | E4 F2 F2 | F3 F D2 C2 | D3 D C2 _E2 | _E3 E D2 C2 | %68
w: gia- va~a|l'om- bra di- let-|te- vo- le|Or|lat- te e~or|gi- ne- bri e|mo- ro- le, e~or|gi- ne- bri e|
 D6 D2 | D8 | D8 | C3 C B,4- | B,4 A,4 | z4 F4 | A2 A2 G4- | G4 ^F2 F2 | G3 D F3 F | D3 D F2 F2 | %78
w: mo- ro-|le,|O|dol- ce tem-|* po|O|dol- ce tem-|* po o|vi- ta sol- laz-|ze- vo- le. o|
 D3 D F3 F | D3 D F4 | z2 D2 F3 C | _E3 C D3 D | D4 z2 B,2 | C3 D _E3 D | D6 D2 | D8 |] %86
w: vi- ta sol- laz-|ze- vo- le.|o vi- ta|sol- laz- ze- vo-|le. o|vi- ta sol- laz-|ze- vo-|le.|
V:3
 z8 | ^F8 | G8 | G8 | G8 | D8 | D8 | G2 A2 B2 c2 | d2 e2 ^f3 f | g8 | z8 | z4 d4- | d4 d4 | G6 G2 | %14
w: |La|ter-|ra,|La|ter-|ra,|che dal fon- do|par che pu- lu-|le||A-|* tri~a-|co- ni-|
 C8 | z4 G4 | A4 A4 | B4 =B4 | c6 c2 | c4 A4 | B4 =B4 | c4 c4 | d6 d2 | G8 | z4 d4 | d4 d4 | %26
w: ti|e|piant' aspr'|e mor-|ti- fe-|re, e|piant' aspr'|e mor-|ti- fe-|re,|e|piant' aspr'|
 e4 _e4 | d6 d2 | c4 e4 | f4 d4 | ^c8 | z4 A4 | A4 A4 | B8- | B8- | B8 | B8 | F3 E D2 E2 | %38
w: e mor-|ti- fe-|re, Ond'|og- gi~ad-|vien|che|cia- scun|pian-|||ga~ed|u- * * *|
 FG A4 G2 | F2 G2 A3 A | G4 =B4 | =B2 B2 B2 B2 | c3 c G2 B2 | A3 A A4 | c4 d4 | _e6 e2 | %46
w: |* * * lu-|le E-|ra~all' or pie- na|d'er- be sa- lu-|ti- fe- re,|E di|bal- sa-|
 _e4 d2 d2 | G2 A2 B2 c2 | d2 c2 =B3 B | c4 c4 | F4 F2 A2 | F4 F2 F2 | FEFG AGFE | D3 D D2 d2 | %54
w: mo~e 'ncen- so|la- gri- me- *|* * * vo-|le, Di|mir- rhe Di|mir- rhe Di|mir- rhe pre- zi- os' e o- do-|ri- fe- re Di|
 cBcd c2 c2 | z2 A2 AGAB | cBAB c4 | d6 d2 | c4 c4 | c4 c4 | c4 c4 | c3 c c2 B2 | A3 A A2 A2 | %63
w: mir- rhe pre- zi- o- se|Di mir- rhe pre- zi-|os' e o- do- ri-|* fe-|re Cia-|scun man-|gia- va~a|l'om- bra di- let-|te- vo- le Or|
 B4 A4 | z4 z2 c2 | c3 c =B2 c2 | =B3 B c2 c2 | c3 c A2 G2 | A6 A2 | G4 B4- | B4 A2 A2 | G8- | %72
w: lat- te|e~or|gi- ne- bri e|mo- ro- le, e~or|gi- ne- bri e|mo- ro-|le, O|* dol- ce|tem-|
 G4 ^F4 | z4 d4 | f2 f2 d4 | d8 | z4 D4 | G3 G F3 F | B3 B A2 D2 | G3 G F3 F | B3 B A2 A2 | %81
w: * po|O|dol- ce tem-|po|o|vi- ta sol- laz-|ze- vo- le. o|vi- ta sol- laz-|ze- vo- le. o|
 c3 c B3 B | A3 A G2 d2 | _e3 d c3 B | A6 A2 | =B8 |] %86
w: vi- ta sol- laz-|ze- vo- le. o|vi- ta sol- laz-|ze- vo-|le.|
V:4
 D,8- | D,8 | G,,8 | G,,8- | G,,8 | G,,2 A,,2 B,,2 C,2 | D,2 E,2 ^F,3 F, | G,4 G,4 | D,4 D,4 | %9
w: La||ter-|ra,||che dal fon- do|par che pu- lu-|le La|ter- ra,|
 G,,2 A,,2 B,,2 C,2 | D,6 _E, x | D,6 D,2 | G,,8 | z4 G,4- | G,4 G,4 | C,6 C,2 | F,,8 | z4 D,4 | %18
w: che dal fon- do|par che|pu- lu-|le|A-|* tri~a-|co- ni-|ti|e|
 _E,4 =E,4 | F,4 ^F,4 | G,6 G,2 | C,8 | z4 D,4 | _E,4 =E,4 | F,4 ^F,4 | G,6 G,2 | G,8- | G,8 | %28
w: piant' aspr'|e mor-|ti- fe-|re,|e|piant' aspr'|e mor-|ti- fe-|re,||
 z4 C,4 | F,4 G,4 | A,8 | D,8 | D,4 D,4 | G,6 F,2 | _E,8- | E,8 | B,,4 B,,4- | B,,2 A,,2 B,,2 C,2 | %38
w: Ond'|og- gi~ad-|vien|che|cia- scun|pian- *|||ga~ed u-||
 D,2 C,2 D,2 _E,2 | D,6 D,2 | G,,4 G,4 | G,2 G,2 G,2 G,2 | C,3 C, C,2 B,,2 | F,3 F, F,4 | F,6 G,2 | %45
w: |* lu-|le E-|ra~all' or pie- na|d'er- be sa- lu-|ti- fe- re,|E di|
 _E,6 E,2 | _E,4 G,4- | G,2 ^F,2 G,2 A,2 | G,6 G,2 | C,8 | z4 z2 F,2 | B,,4 B,,2 B,,2 | %52
w: bal- sa-|mo~e 'ncen-|* so la- gri-|me- vo-|le,|Di|mir- rhe Di|
 D,C,D,E, F,E,D,C, | B,,3 B,, B,,2 B,,2 | F,,4 F,,2 F,2 | D,C,D,E, F,E,F,G, | A,6 A,2 | G,8 | %58
w: mir- rhe pre- zi- os' e o- do-|ri- fe- re Di|mir- rhe Di|mir- rhe pre- zi- os' e o- do-|ri- fe-|re|
 z4 C,4 | C,4 C,4 | F,4 F,4 | F,3 E, F,2 G,2 | D,3 D, D,2 D,2 | G,4 F,4 | z4 z2 F,2 | %65
w: Cia-|scun man-|gia- va~a|l'om- bra di- let-|te- vo- le Or|lat- te|e~or|
 F,3 F, G,2 A,2 | G,3 G, C,2 C,2 | C,3 C, D,2 _E,2 | D,6 D,2 | G,,4 G,4- | G,4 F,2 F,2 | _E,8 | %72
w: gi- ne- bri e|mo- ro- le, e~or|gi- ne- bri e|mo- ro-|le, O|* dol- ce|tem-|
 D,8 | B,8 | F,2 F,2 G,4 | D,6 D,2 | G,3 G, F,3 F, | B,3 B, A,2 D,2 | G,3 G, F,3 F, | %79
w: po|O|dol- ce tem-|po o|vi- ta sol- laz-|ze- vo- le. o|vi- ta sol- laz-|
 B,3 B, A,2 D,2 | G,3 G, F,3 F, | _E,3 F, D,4- | D,4 z2 G,,2 | C,3 =B,, C,3 G,, | D,6 D,2 | G,,8 |] %86
w: ze- vo- le. o|vi- ta sol- laz-|ze- vo- le.|* o|vi- ta sol- laz-|ze- vo-|le.|

